build/img/sprites/close.svg

<svg width="24" height="24" viewBox="0 0 24 24" fill="none" xmlns="http://www.w3.org/2000/svg">
<path fill-rule="evenodd" clip-rule="evenodd" d="M5.28317 5.28255C5.47843 5.08729 5.79501 5.08729 5.99027 5.28255L12.0007 11.293L18.0111 5.28255C18.2063 5.08729 18.5229 5.08729 18.7182 5.28255C18.9135 5.47782 18.9135 5.7944 18.7182 5.98966L12.7078 12.0001L18.7182 18.0105C18.9135 18.2057 18.9135 18.5223 18.7182 18.7176C18.5229 18.9128 18.2063 18.9128 18.0111 18.7176L12.0007 12.7072L5.99027 18.7176C5.79501 18.9128 5.47843 18.9128 5.28317 18.7176C5.0879 18.5223 5.0879 18.2057 5.28317 18.0105L11.2936 12.0001L5.28317 5.98966C5.0879 5.7944 5.0879 5.47782 5.28317 5.28255Z" fill="#101010"/>
</svg>

<svg width="24" height="24" viewBox="0 0 24 24" fill="none" xmlns="http://www.w3.org/2000/svg"><path fill-rule="evenodd" clip-rule="evenodd" d="M5.283 5.283a.5.5 0 01.707 0l6.01 6.01 6.011-6.01a.5.5 0 11.707.707L12.708 12l6.01 6.01a.5.5 0 11-.707.708l-6.01-6.01-6.01 6.01a.5.5 0 01-.708-.707l6.01-6.01-6.01-6.011a.5.5 0 010-.707z" fill="#101010"/></svg>
